X:1021
M:C
L:1/8
Q:1/2=90
K:A Dorian
e|a>bc'a ea`c'a|b/a/g/e/ de  gd```````bg |a>bc'a e>ac'a|c'/b/a/g/ e^g      a/a/a a2 |
  a>bc'a b^gae |g>e``````d>g B>G``````d>B|E>AA>G E>AA>a|gd        e/d/c/B/ A2    A2|]

